X:171
T:Jacksons Morning Brush. VWMLa.171
%%VWML:Anon2-3049-p106-0
F:http://www.vwml.org/record/Anon2/3049/p106
S:Anon. MS, late 18thC, Vaughan Williams Mem. Library
O:England;Yorkshire
Z:vmp/efdss.Simon Wilson. Reviewed PJH 2008.
M:6/8
L:1/8
Q:3/8=120
K:D
D|DFE EFD DFA AFA|Bcd def|gee e2D|\
DFE EFD|DFA AFA|Bcd efg|fdd d2:|
|:e|fed faf|faf fdA|AFA def|gee e2e|\
fed (f/g/a).a|(f/g/a).a fdA|AFA ege|fdd d2:|
|:e|fdf ece|dBd AFA|DFA dfa|gee e2e|\
fdf ece|dBd AFA|DFA Bge|fdd d2:|
